X:2
T:The Waves of Kilkee
M:3/4
L:1/8
R:Air
C:Joanie Madden & Brian Keane
S:Cherish the Ladies: At Home
Z:Michael Abraham Shulman
K:G
GA|B4 de|d4 BA|G6|g4 f2|e3 f2 g|d B4 A/G/|A6-|A4 GA|
B4 de|d4 BA|G6|e2 f3 g|d B4 A/G/|A4-A B|G6-|G4:|
ga|g4 ~g2|g3 a bd|e4-e d|d4 (3def|g4 AB|B6|A6-|A4 ga|
g4 ~g2|g3 a bd|e6|d4 ge|d B4 A|A4 GF|G6-|G4 ga|
g4 ~g2|g3 a bd|e4-e f|g6|g4 ~g2|g2 b4|a6-|a3 a ba|
g4 ~g2|g3 a bd|e6-|e4 ge|d B4 A/G/|A6|G6-|G6||
